X: 47
T: Starlight Schottische
M:4/4
L:1/8
S:Viola "Mom" Ruth - Pioneer Western Folk Tunes (1948).
Z:AK/Fiddler's Companion
K:C
(3EF^F | G>Gc>d e>cG>E | A>Ad>e f4 | B>g^f>g =f>dA>B |
(3ced (3cBA G2 (EF) | G>Gc>d e>cG>E | A>Ad>e f4 | B>g^f>g =f>dA>B | c2e2c4 ||
K:F
A4B2=B2 | c4f4 | e2 (3Gce d2 (3FAd | d>cA>F D>CB,>C | A2B=B2 | c4a4 |
g>fd>f c>BA>B | (3cdc (3BAG F2 ||
K:G
Bc | d>ed>c B>cB>A | G2 (3Geg e2d2 | F2 (3FAg f2e2 | G2 (3Geg e2d2 |
d>ed>c B>cB>A | G2 (3Geg e2d2 | (3fgf (3efe (3ded (3cBA | G2B2G2 ||

%%sep 1 1 500
